Newaita-dark/apps/22/libreoffice-math.svg

<svg height="22" viewBox="0 0 22 22" width="22" xmlns="http://www.w3.org/2000/svg" xmlns:xlink="http://www.w3.org/1999/xlink"><linearGradient id="a" gradientTransform="matrix(.0511582 0 0 .0429729 -1.808356 9.239165)" gradientUnits="userSpaceOnUse" x1="254" x2="254" y1="233.5" y2="254.666672"><stop offset="0" stop-opacity=".27451"/><stop offset="1" stop-opacity="0"/></linearGradient><linearGradient id="b"><stop offset="0" stop-opacity=".313726"/><stop offset=".222222" stop-opacity=".27451"/><stop offset="1" stop-opacity="0"/></linearGradient><radialGradient id="c" cx="450.908936" cy="189.579361" gradientTransform="matrix(.00000012 -.0537161 -.0966889 -.00000007 34.702833 43.721791)" gradientUnits="userSpaceOnUse" r="21.166656" xlink:href="#b"/><radialGradient id="d" cx="450.908936" cy="189.579361" gradientTransform="matrix(-.00000012 .0537161 .0966889 .00000007 -12.872623 -5.175142)" gradientUnits="userSpaceOnUse" r="21.166656" xlink:href="#b"/><radialGradient id="e" cx="450.908936" cy="189.579361" gradientTransform="matrix(-.00000012 -.0537161 .0966889 -.00000007 -12.872623 43.721791)" gradientUnits="userSpaceOnUse" r="21.166656" xlink:href="#b"/><radialGradient id="f" cx="450.908936" cy="189.579361" gradientTransform="matrix(.00000012 .0537161 -.0966889 .00000007 34.702832 -5.175142)" gradientUnits="userSpaceOnUse" r="21.166656" xlink:href="#b"/><linearGradient id="g"><stop offset="0" stop-color="#78909c"/><stop offset="1" stop-color="#90a4ae"/></linearGradient><linearGradient id="h" gradientUnits="userSpaceOnUse" x1="10.915104" x2="10.915104" xlink:href="#g" y1="19.27332401286" y2="1.99107548985"/><linearGradient id="i" gradientUnits="userSpaceOnUse" x1="10.915104" x2="10.915104" y1="18.36373201286" y2="2.90066748985"><stop offset="0" stop-color="#e0e0e0"/><stop offset="1" stop-color="#eee"/></linearGradient><linearGradient id="j" gradientUnits="userSpaceOnUse" x1="10.63970730419" x2="10.63970730419" xlink:href="#g" y1="14.69190244162" y2="6.05076903959"/><path d="m5.230469 19.273438h11.371093v.910156h-11.371093zm0 0" fill="url(#a)"/><path d="m16.601562 19.273438h1.816407v-.910157h-1.816407zm0 0" fill="url(#c)"/><path d="m5.230469 19.273438h-1.820313v.910156h1.820313zm0 0" fill="url(#d)"/><path d="m5.230469 19.273438h-1.820313v-.910157h1.820313zm0 0" fill="url(#e)"/><path d="m16.601562 19.273438h1.816407v.910156h-1.816407zm0 0" fill="url(#f)"/><path d="m4.546875 1.992188c-.503906 0-.910156.40625-.910156.910156v15.460937c0 .503907.40625.910157.910156.910157h12.734375c.503906 0 .910156-.40625.910156-.910157v-10.347656l-6.023437-6.023437zm9.550781 0 4.09375 4.09375v-3.183594c0-.503906-.40625-.910156-.910156-.910156zm0 0" fill="url(#h)"/><path d="m5.003906 2.902344c-.253906 0-.457031.199218-.457031.453125v14.554687c0 .25.203125.453125.457031.453125h11.824219c.25 0 .453125-.203125.453125-.453125v-9.550781l-5.457031-5.457031zm0 0" fill="url(#i)"/><path d="m4.546875 1.992188c-.503906 0-.910156.40625-.910156.910156v.226562c0-.503906.40625-.910156.910156-.910156h7.621094l6.023437 6.023438v-.226563l-6.023437-6.023437zm9.550781 0 .226563.226562h2.957031c.503906 0 .910156.40625.910156.910156v-.226562c0-.503906-.40625-.910156-.910156-.910156zm0 0" fill="#fff" fill-opacity=".392157"/><path d="m5.003906 2.902344c-.253906 0-.457031.199218-.457031.453125v.339843c0-.25.203125-.453124.457031-.453124h6.820313l5.457031 5.457031v-.339844l-5.457031-5.457031zm0 0" fill-opacity=".235294"/><path d="m4.546875 17.925781v.214844c0 .25.203125.453125.457031.453125h11.824219c.25 0 .453125-.203125.453125-.453125v-.214844c0 .25-.203125.453125-.453125.453125h-11.824219c-.253906 0-.457031-.203125-.457031-.453125zm0 0" fill="#fff" fill-opacity=".392157"/><path d="m440.101159 255.265544c-22.33144 0-40.196593 17.521592-40.196593 39.853032v1280.106886c0 21.98788 17.865153 39.853032 40.196593 39.853032h1039.95801c21.98788 0 39.853032-17.865152 39.853032-39.853032v-840.005726l-479.954192-479.954192zm0 0" fill="none" stroke="#212121" stroke-linecap="round" stroke-linejoin="round" stroke-width="11.338583" transform="scale(.0113699)"/><path d="m14.097656 1.992188 4.09375 4.09375v-.222657l-3.871094-3.871093zm-10.460937 16.148437v.222656c0 .503907.40625.910157.910156.910157h12.734375c.503906 0 .910156-.40625.910156-.910157v-.222656c0 .503906-.40625.910156-.910156.910156h-12.734375c-.503906 0-.910156-.40625-.910156-.910156zm0 0" fill-opacity=".235294"/><path d="m399.904566 175.215918c-44.31932 0-80.049625 35.730305-80.049625 80.049626v1359.81295c0 44.31932 35.730305 80.049625 80.049625 80.049625h1120.007635c44.319321 0 80.049626-35.730305 80.049626-80.049625v-910.092093l-529.770483-529.770483zm840.005726 0 360.051535 360.051534v-280.001908c0-44.319321-35.730305-80.049626-80.049626-80.049626zm0 0" fill="none" stroke="#212121" stroke-linecap="round" stroke-linejoin="round" stroke-width="11.338583" transform="scale(.0113699)"/><g fill-rule="evenodd"><path d="m10.765625 7.1875c-.214844 0-.402344.15625-.445313.371094l-.75 3.890625-.410156-1.640625c-.050781-.203125-.230468-.347656-.441406-.347656h-.90625c-.253906 0-.460938.203124-.460938.457031 0 .253906.207032.457031.460938.453125h.554688l.820312 3.292968c.121094.472657.796875.453126.890625-.023437l1.0625-5.542969h2.808594c.257812.003906.464843-.199218.464843-.453125 0-.257812-.207031-.460937-.464843-.457031zm1.128906 3.179688c-.363281 0-.578125.410156-.371093.710937l.742187 1.113281-.742187 1.113282c-.144532.207031-.089844.492187.121093.632812.210938.140625.496094.082031.636719-.128906l.53125-.796875.53125.796875c.136719.210937.421875.269531.632812.128906.210938-.140625.265626-.425781.121094-.632812l-.742187-1.113282.742187-1.113281c.210938-.304687-.015625-.722656-.386718-.710937-.148438.003906-.289063.082031-.367188.207031l-.53125.796875-.53125-.796875c-.085938-.128907-.230469-.207031-.386719-.207031zm0 0" fill="url(#j)"/><path d="m10.765625 7.1875c-.214844 0-.402344.15625-.445313.371094l-.75 3.890625-.410156-1.640625c-.050781-.203125-.230468-.347656-.441406-.347656h-.90625c-.253906 0-.460938.203124-.460938.457031 0 .042969.003907.085937.015626.125.054687-.191407.234374-.332031.445312-.332031h.90625c.210938.003906.390625.144531.441406.347656l.410156 1.640625.75-3.890625c.042969-.214844.230469-.371094.445313-.371094h3.183594c.210937-.003906.390625.136719.445312.332031.011719-.042969.019531-.082031.019531-.125 0-.257812-.207031-.460937-.464843-.457031zm1.128906 3.179688c-.3125 0-.515625.304687-.433593.578124.050781-.179687.21875-.328124.433593-.328124.15625 0 .300781.078124.386719.207031l.53125.796875.53125-.796875c.078125-.125.21875-.203125.367188-.207031.226562-.007813.398437.144531.449218.332031.085938-.28125-.128906-.589844-.449218-.582031-.148438.003906-.289063.082031-.367188.207031l-.53125.796875-.53125-.796875c-.085938-.128907-.230469-.207031-.386719-.207031zm.285157 1.949218-.65625.988282c-.078126.113281-.097657.253906-.0625.378906.011718-.042969.035156-.089844.0625-.128906l.742187-1.113282zm1.261718 0-.085937.125.742187 1.113282c.03125.039062.050782.085937.0625.128906.035156-.125.019532-.265625-.0625-.378906zm0 0" fill="#fff" fill-opacity=".392157"/><path d="m14.378906 7.789062c-.066406.171876-.234375.289063-.429687.285157h-2.808594l-1.0625 5.542969c-.09375.476562-.769531.496093-.890625.023437l-.820312-3.292969h-.554688c-.195312.003906-.359375-.117187-.429688-.285156-.019531.054688-.03125.113281-.03125.171875 0 .253906.207032.457031.460938.453125h.554688l.820312 3.296875c.121094.46875.796875.453125.890625-.027344l1.0625-5.542969h2.808594c.257812.003907.464843-.199218.464843-.453124 0-.0625-.011718-.117188-.035156-.171876zm-.234375 3.179688c-.011719.027344-.027343.058594-.046875.085938l-.742187 1.113281.117187.167969.625-.941407c.09375-.136719.101563-.292969.046875-.425781zm-2.667969 0c-.054687.132812-.046874.292969.046876.425781l.628906.941407.113281-.167969-.742187-1.113281c-.019532-.027344-.035157-.054688-.046876-.085938zm1.335938 2.019531-.53125.796875c-.140625.210938-.425781.269532-.636719.128906-.078125-.050781-.132812-.125-.167969-.207031-.078124.195313-.011718.425781.167969.546875.210938.140625.496094.082032.636719-.128906l.53125-.796875.53125.796875c.136719.210938.421875.269531.632812.128906.183594-.121094.246094-.351562.167969-.546875-.03125.082031-.089843.15625-.167969.207031-.210937.140626-.496093.082032-.632812-.128906zm0 0" fill-opacity=".235294"/></g><path d="m250.521531-47.743245c-4.999523 0-9.362742 3.636016-10.362647 8.635539l-17.452879 90.536809-9.544543-38.178173c-1.181705-4.726821-5.363124-8.090136-10.271746-8.090136h-21.088895c-5.908527 0-10.726249 4.726821-10.726249 10.635348s4.817722 10.635348 10.726249 10.544447h12.907858l19.089086 76.629046c2.817913 10.99895 18.543684 10.544448 20.725294-.545402l24.724911-128.987682h65.357395c5.999427.0909 10.817149-4.635921 10.817149-10.544448 0-5.999427-4.817722-10.726248-10.817149-10.635348zm26.270219 73.992934c-8.453739 0-13.453261 9.544543-8.635539 16.543875l17.271078 25.906617-17.271078 25.906617c-3.363316 4.817721-2.09071 11.453451 2.817912 14.725866s11.544352 1.908909 14.816767-2.999713l12.362456-18.543684 12.362456 18.543684c3.181514 4.908622 9.817244 6.272128 14.725866 2.999713s6.181228-9.908145 2.817913-14.725866l-17.271078-25.906617 17.271078-25.906617c4.908622-7.090232-.363602-16.816576-8.999141-16.543875-3.454215.0909-6.72663 1.908909-8.544638 4.817722l-12.362456 18.543684-12.362456-18.543684c-1.999809-2.999714-5.363124-4.817722-8.99914-4.817722zm0 0" fill="none" stroke="#212121" stroke-linecap="round" stroke-linejoin="round" stroke-width="3" transform="matrix(.0429729 0 0 .0429729 0 9.239163)"/></svg>

<?xml version="1.0" encoding="UTF-8"?>
<svg xmlns="http://www.w3.org/2000/svg" xmlns:xlink="http://www.w3.org/1999/xlink" width="22px" height="22px" viewBox="0 0 22 22" version="1.1">
<defs>
<linearGradient id="linear0" gradientUnits="userSpaceOnUse" x1="254" y1="233.5" x2="254" y2="254.666672" gradientTransform="matrix(0.0511582,0,0,0.0429729,-1.808356,9.239165)">
<stop offset="0" style="stop-color:rgb(0%,0%,0%);stop-opacity:0.27451;"/>
<stop offset="1" style="stop-color:rgb(0%,0%,0%);stop-opacity:0;"/>
</linearGradient>
<radialGradient id="radial0" gradientUnits="userSpaceOnUse" cx="450.908936" cy="189.579361" fx="450.908936" fy="189.579361" r="21.166656" gradientTransform="matrix(0.000000119742,-0.0537161,-0.0966889,-0.0000000698078,34.702833,43.721791)">
<stop offset="0" style="stop-color:rgb(0%,0%,0%);stop-opacity:0.313726;"/>
<stop offset="0.222222" style="stop-color:rgb(0%,0%,0%);stop-opacity:0.27451;"/>
<stop offset="1" style="stop-color:rgb(0%,0%,0%);stop-opacity:0;"/>
</radialGradient>
<radialGradient id="radial1" gradientUnits="userSpaceOnUse" cx="450.908936" cy="189.579361" fx="450.908936" fy="189.579361" r="21.166656" gradientTransform="matrix(-0.000000119742,0.0537161,0.0966889,0.0000000698078,-12.872623,-5.175142)">
<stop offset="0" style="stop-color:rgb(0%,0%,0%);stop-opacity:0.313726;"/>
<stop offset="0.222222" style="stop-color:rgb(0%,0%,0%);stop-opacity:0.27451;"/>
<stop offset="1" style="stop-color:rgb(0%,0%,0%);stop-opacity:0;"/>
</radialGradient>
<radialGradient id="radial2" gradientUnits="userSpaceOnUse" cx="450.908936" cy="189.579361" fx="450.908936" fy="189.579361" r="21.166656" gradientTransform="matrix(-0.000000119742,-0.0537161,0.0966889,-0.0000000698078,-12.872623,43.721791)">
<stop offset="0" style="stop-color:rgb(0%,0%,0%);stop-opacity:0.313726;"/>
<stop offset="0.222222" style="stop-color:rgb(0%,0%,0%);stop-opacity:0.27451;"/>
<stop offset="1" style="stop-color:rgb(0%,0%,0%);stop-opacity:0;"/>
</radialGradient>
<radialGradient id="radial3" gradientUnits="userSpaceOnUse" cx="450.908936" cy="189.579361" fx="450.908936" fy="189.579361" r="21.166656" gradientTransform="matrix(0.000000119742,0.0537161,-0.0966889,0.0000000698078,34.702832,-5.175142)">
<stop offset="0" style="stop-color:rgb(0%,0%,0%);stop-opacity:0.313726;"/>
<stop offset="0.222222" style="stop-color:rgb(0%,0%,0%);stop-opacity:0.27451;"/>
<stop offset="1" style="stop-color:rgb(0%,0%,0%);stop-opacity:0;"/>
</radialGradient>
<linearGradient id="linear1" gradientUnits="userSpaceOnUse" x1="254" y1="233.5" x2="254" y2="-168.666672" gradientTransform="matrix(0.0429729,0,0,0.0429729,0,9.239163)">
<stop offset="0" style="stop-color:rgb(87.843138%,87.843138%,87.843138%);stop-opacity:1;"/>
<stop offset="1" style="stop-color:rgb(93.333334%,93.333334%,93.333334%);stop-opacity:1;"/>
</linearGradient>
<linearGradient id="linear2" gradientUnits="userSpaceOnUse" x1="413.712219" y1="-474.701691" x2="413.712219" y2="-72.535034" gradientTransform="matrix(0.0429729,0,0,0.0429729,0,9.239163)">
<stop offset="0" style="stop-color:rgb(47.058824%,56.470591%,61.176473%);stop-opacity:1;"/>
<stop offset="1" style="stop-color:rgb(56.470591%,64.313728%,68.235296%);stop-opacity:1;"/>
</linearGradient>
<linearGradient id="linear3" gradientUnits="userSpaceOnUse" x1="243.416672" y1="127.666656" x2="243.416672" y2="-73.416664" gradientTransform="matrix(0.0429729,0,0,0.0429729,0.179387,9.239174)">
<stop offset="0" style="stop-color:rgb(47.058824%,56.470591%,61.176473%);stop-opacity:1;"/>
<stop offset="1" style="stop-color:rgb(56.470591%,64.313728%,68.235296%);stop-opacity:1;"/>
</linearGradient>
</defs>
<g id="surface1">
<path style=" stroke:none;fill-rule:nonzero;fill:url(#linear0);" d="M 5.230469 19.273438 L 16.601562 19.273438 L 16.601562 20.183594 L 5.230469 20.183594 Z M 5.230469 19.273438 "/>
<path style=" stroke:none;fill-rule:nonzero;fill:url(#radial0);" d="M 16.601562 19.273438 L 18.417969 19.273438 L 18.417969 18.363281 L 16.601562 18.363281 Z M 16.601562 19.273438 "/>
<path style=" stroke:none;fill-rule:nonzero;fill:url(#radial1);" d="M 5.230469 19.273438 L 3.410156 19.273438 L 3.410156 20.183594 L 5.230469 20.183594 Z M 5.230469 19.273438 "/>
<path style=" stroke:none;fill-rule:nonzero;fill:url(#radial2);" d="M 5.230469 19.273438 L 3.410156 19.273438 L 3.410156 18.363281 L 5.230469 18.363281 Z M 5.230469 19.273438 "/>
<path style=" stroke:none;fill-rule:nonzero;fill:url(#radial3);" d="M 16.601562 19.273438 L 18.417969 19.273438 L 18.417969 20.183594 L 16.601562 20.183594 Z M 16.601562 19.273438 "/>
<path style=" stroke:none;fill-rule:nonzero;fill:url(#linear1);" d="M 13.683594 1.992188 L 4.546875 1.992188 C 4.042969 1.992188 3.636719 2.398438 3.636719 2.902344 L 3.636719 18.363281 C 3.636719 18.867188 4.042969 19.273438 4.546875 19.273438 L 17.28125 19.273438 C 17.785156 19.273438 18.191406 18.867188 18.191406 18.363281 L 18.191406 6.121094 Z M 13.683594 1.992188 "/>
<path style=" stroke:none;fill-rule:nonzero;fill:url(#linear2);" d="M 13.683594 1.992188 L 18.191406 6.121094 L 18.191406 2.902344 C 18.191406 2.398438 17.785156 1.992188 17.28125 1.992188 Z M 13.683594 1.992188 "/>
<path style=" stroke:none;fill-rule:nonzero;fill:rgb(0%,0%,0%);fill-opacity:0.235294;" d="M 3.636719 18.136719 L 3.636719 18.363281 C 3.636719 18.867188 4.042969 19.273438 4.546875 19.273438 L 17.28125 19.273438 C 17.785156 19.273438 18.191406 18.867188 18.191406 18.363281 L 18.191406 18.136719 C 18.191406 18.640625 17.785156 19.046875 17.28125 19.046875 L 4.546875 19.046875 C 4.042969 19.046875 3.636719 18.640625 3.636719 18.136719 Z M 3.636719 18.136719 "/>
<path style=" stroke:none;fill-rule:nonzero;fill:rgb(100%,100%,100%);fill-opacity:1;" d="M 4.546875 1.992188 C 4.042969 1.992188 3.636719 2.398438 3.636719 2.902344 L 3.636719 3.355469 C 3.636719 2.851562 4.042969 2.445312 4.546875 2.445312 L 13.683594 2.445312 L 18.191406 6.578125 L 18.191406 6.121094 L 13.683594 1.992188 Z M 4.546875 1.992188 "/>
<path style=" stroke:none;fill-rule:nonzero;fill:rgb(100%,100%,100%);fill-opacity:0.392157;" d="M 13.683594 1.992188 L 14.179688 2.445312 L 17.28125 2.445312 C 17.785156 2.445312 18.191406 2.851562 18.191406 3.355469 L 18.191406 2.902344 C 18.191406 2.398438 17.785156 1.992188 17.28125 1.992188 Z M 13.683594 1.992188 "/>
<path style=" stroke:none;fill-rule:nonzero;fill:rgb(0%,0%,0%);fill-opacity:0.235294;" d="M 13.683594 1.992188 L 18.191406 6.121094 L 18.191406 5.742188 L 14.097656 1.992188 Z M 13.683594 1.992188 "/>
<path style="fill:none;stroke-width:11.338583;stroke-linecap:round;stroke-linejoin:round;stroke:rgb(12.941177%,12.941177%,12.941177%);stroke-opacity:1;stroke-miterlimit:4;" d="M 1203.492866 175.215918 L 399.904566 175.215918 C 355.585246 175.215918 319.854941 210.946223 319.854941 255.265544 L 319.854941 1615.078494 C 319.854941 1659.397814 355.585246 1695.128119 399.904566 1695.128119 L 1519.912201 1695.128119 C 1564.231522 1695.128119 1599.961827 1659.397814 1599.961827 1615.078494 L 1599.961827 538.359498 Z M 1203.492866 175.215918 " transform="matrix(0.0113699,0,0,0.0113699,0,0)"/>
<path style="fill:none;stroke-width:3;stroke-linecap:round;stroke-linejoin:round;stroke:rgb(12.941177%,12.941177%,12.941177%);stroke-opacity:1;stroke-miterlimit:4;" d="M 318.424137 -168.640791 L 423.323211 -72.559057 L 423.323211 -147.460995 C 423.323211 -159.187148 413.869568 -168.640791 402.143415 -168.640791 Z M 318.424137 -168.640791 " transform="matrix(0.0429729,0,0,0.0429729,0,9.239163)"/>
<path style=" stroke:none;fill-rule:evenodd;fill:url(#linear3);" d="M 10.765625 7.222656 C 10.550781 7.222656 10.363281 7.375 10.320312 7.589844 L 9.570312 11.484375 L 9.160156 9.839844 C 9.109375 9.636719 8.929688 9.496094 8.71875 9.496094 L 7.8125 9.496094 C 7.558594 9.492188 7.351562 9.699219 7.351562 9.949219 C 7.351562 10.203125 7.558594 10.40625 7.8125 10.40625 L 8.367188 10.40625 L 9.1875 13.699219 C 9.308594 14.171875 9.984375 14.152344 10.078125 13.675781 L 11.140625 8.128906 L 13.949219 8.128906 C 14.207031 8.136719 14.414062 7.929688 14.414062 7.675781 C 14.414062 7.421875 14.207031 7.21875 13.949219 7.222656 Z M 11.894531 10.398438 C 11.53125 10.402344 11.316406 10.8125 11.523438 11.113281 L 12.265625 12.222656 L 11.523438 13.335938 C 11.378906 13.546875 11.433594 13.832031 11.644531 13.972656 C 11.855469 14.113281 12.140625 14.054688 12.28125 13.839844 L 12.8125 13.042969 L 13.34375 13.839844 C 13.480469 14.054688 13.765625 14.113281 13.976562 13.972656 C 14.1875 13.832031 14.242188 13.546875 14.097656 13.335938 L 13.355469 12.222656 L 14.097656 11.113281 C 14.308594 10.804688 14.082031 10.390625 13.710938 10.398438 C 13.5625 10.40625 13.421875 10.480469 13.34375 10.609375 L 12.8125 11.40625 L 12.28125 10.609375 C 12.195312 10.476562 12.050781 10.398438 11.894531 10.398438 Z M 11.894531 10.398438 "/>
<path style=" stroke:none;fill-rule:evenodd;fill:rgb(100%,100%,100%);fill-opacity:0.392157;" d="M 10.765625 7.222656 C 10.550781 7.222656 10.363281 7.375 10.320312 7.589844 L 9.570312 11.484375 L 9.160156 9.839844 C 9.109375 9.636719 8.929688 9.496094 8.71875 9.496094 L 7.8125 9.496094 C 7.558594 9.492188 7.351562 9.699219 7.351562 9.949219 C 7.351562 9.992188 7.355469 10.035156 7.367188 10.074219 C 7.421875 9.882812 7.601562 9.742188 7.8125 9.746094 L 8.71875 9.746094 C 8.929688 9.746094 9.109375 9.886719 9.160156 10.089844 L 9.570312 11.734375 L 10.320312 7.839844 C 10.363281 7.628906 10.550781 7.472656 10.765625 7.472656 L 13.949219 7.472656 C 14.160156 7.46875 14.339844 7.609375 14.394531 7.800781 C 14.40625 7.761719 14.414062 7.71875 14.414062 7.675781 C 14.414062 7.421875 14.207031 7.21875 13.949219 7.222656 Z M 11.894531 10.398438 C 11.582031 10.402344 11.378906 10.703125 11.460938 10.980469 C 11.511719 10.796875 11.679688 10.652344 11.894531 10.652344 C 12.050781 10.648438 12.195312 10.726562 12.28125 10.859375 L 12.8125 11.65625 L 13.34375 10.859375 C 13.421875 10.730469 13.5625 10.65625 13.710938 10.652344 C 13.9375 10.644531 14.109375 10.792969 14.160156 10.980469 C 14.246094 10.699219 14.03125 10.390625 13.710938 10.398438 C 13.5625 10.40625 13.421875 10.480469 13.34375 10.609375 L 12.8125 11.40625 L 12.28125 10.609375 C 12.195312 10.476562 12.050781 10.398438 11.894531 10.398438 Z M 12.179688 12.347656 L 11.523438 13.335938 C 11.445312 13.453125 11.425781 13.59375 11.460938 13.71875 C 11.472656 13.671875 11.496094 13.628906 11.523438 13.585938 L 12.265625 12.476562 Z M 13.441406 12.347656 L 13.355469 12.476562 L 14.097656 13.585938 C 14.128906 13.628906 14.148438 13.671875 14.160156 13.71875 C 14.195312 13.59375 14.179688 13.453125 14.097656 13.335938 Z M 13.441406 12.347656 "/>
<path style=" stroke:none;fill-rule:evenodd;fill:rgb(0%,0%,0%);fill-opacity:0.235294;" d="M 14.378906 7.824219 C 14.3125 7.992188 14.144531 8.109375 13.949219 8.105469 L 11.140625 8.105469 L 10.078125 13.652344 C 9.984375 14.128906 9.308594 14.148438 9.1875 13.675781 L 8.367188 10.382812 L 7.8125 10.382812 C 7.617188 10.382812 7.453125 10.265625 7.382812 10.097656 C 7.363281 10.148438 7.351562 10.207031 7.351562 10.269531 C 7.351562 10.519531 7.558594 10.726562 7.8125 10.722656 L 8.367188 10.722656 L 9.1875 14.015625 C 9.308594 14.488281 9.984375 14.46875 10.078125 13.992188 L 11.140625 8.449219 L 13.949219 8.449219 C 14.207031 8.453125 14.414062 8.25 14.414062 7.992188 C 14.414062 7.933594 14.402344 7.875 14.378906 7.824219 Z M 14.144531 11.003906 C 14.132812 11.03125 14.117188 11.058594 14.097656 11.089844 L 13.355469 12.199219 L 13.472656 12.371094 L 14.097656 11.429688 C 14.191406 11.292969 14.199219 11.132812 14.144531 11.003906 Z M 11.476562 11.003906 C 11.421875 11.136719 11.429688 11.292969 11.523438 11.429688 L 12.152344 12.371094 L 12.265625 12.199219 L 11.523438 11.089844 C 11.503906 11.058594 11.488281 11.03125 11.476562 11.003906 Z M 12.8125 13.019531 L 12.28125 13.816406 C 12.140625 14.03125 11.855469 14.089844 11.644531 13.949219 C 11.566406 13.894531 11.511719 13.820312 11.476562 13.742188 C 11.398438 13.9375 11.464844 14.167969 11.644531 14.289062 C 11.855469 14.429688 12.140625 14.371094 12.28125 14.15625 L 12.8125 13.359375 L 13.34375 14.15625 C 13.480469 14.371094 13.765625 14.429688 13.976562 14.289062 C 14.160156 14.167969 14.222656 13.9375 14.144531 13.742188 C 14.113281 13.820312 14.054688 13.894531 13.976562 13.949219 C 13.765625 14.089844 13.480469 14.03125 13.34375 13.816406 Z M 12.8125 13.019531 "/>
<path style="fill:none;stroke-width:3;stroke-linecap:round;stroke-linejoin:round;stroke:rgb(12.941177%,12.941177%,12.941177%);stroke-opacity:1;stroke-miterlimit:4;" d="M 250.521531 -46.925141 C 245.522008 -46.925141 241.158789 -43.380025 240.158884 -38.380503 L 222.706005 52.247206 L 213.161462 13.978134 C 211.979757 9.251312 207.798338 5.978898 202.889716 5.978898 L 181.800821 5.978898 C 175.892294 5.887997 171.074572 10.705719 171.074572 16.523345 C 171.074572 22.431872 175.892294 27.158693 181.800821 27.158693 L 194.708679 27.158693 L 213.797765 103.787739 C 216.615678 114.786689 232.341449 114.332187 234.523059 103.242337 L 259.24797 -25.836246 L 324.605365 -25.836246 C 330.604792 -25.654445 335.422514 -30.472167 335.422514 -36.380694 C 335.422514 -42.28922 330.604792 -47.016042 324.605365 -46.925141 Z M 276.79175 26.976892 C 268.338011 27.067793 263.338489 36.612336 268.156211 43.611667 L 285.427289 69.427384 L 268.156211 95.334001 C 264.792895 100.242623 266.065501 106.878353 270.974123 110.150768 C 275.882745 113.423183 282.518475 112.059676 285.79089 107.060154 L 298.153346 88.51647 L 310.515802 107.060154 C 313.697316 112.059676 320.333046 113.423183 325.241668 110.150768 C 330.15029 106.878353 331.422896 100.242623 328.059581 95.334001 L 310.788503 69.427384 L 328.059581 43.611667 C 332.968203 36.430535 327.695979 26.795092 319.06044 26.976892 C 315.606225 27.158693 312.33381 28.885801 310.515802 31.885515 L 298.153346 50.429198 L 285.79089 31.885515 C 283.791081 28.794901 280.427766 26.976892 276.79175 26.976892 Z M 276.79175 26.976892 " transform="matrix(0.0429729,0,0,0.0429729,0,9.239163)"/>
</g>
</svg>
